X:65
T:The Ballydesmond
M:2/4
L:1/8
K:ADor
c2 B2|AB/A/ G>A|Bd ed|g2 ed|\
ea g>e|dB G>A|Be dB|1 A2 AB:|2A2 A2||
ea a>g|eg g>d|ea af|ga/g/ ed|\
ea g>e|dB G>A|Be dB|1A2 A2:|2A2 AB|>|
